public/img/events/serpents-dance.svg

<svg width="200" height="200" viewBox="0 0 200 200" fill="none" xmlns="http://www.w3.org/2000/svg">
<path d="M50.8163 2.25475C50.8943 7.04372 52.867 11.7548 56.3972 15.043C60.1616 18.5522 65.2119 19.9472 70.2654 20.1028C75.8807 20.2741 81.4148 18.9414 86.924 18.0664C92.4581 17.1884 98.1546 17.0451 103.633 18.3747C112.219 20.464 120.444 26.4425 123.141 35.1299C124.436 39.3023 124.736 44.7109 121.587 48.1828C118.568 51.5114 113.527 51.9971 109.307 52.2089C103.96 52.4798 98.423 51.9255 93.6848 49.2726C89.6864 47.0338 86.5494 43.7363 83.5748 40.3143C78.0188 33.9248 71.567 26.7352 62.2217 27.5198C52.9045 28.3014 46.2092 36.1169 42.8787 44.2625C39.0332 53.6661 39.0831 64.7604 42.7726 74.2076C46.1561 82.8732 52.5611 90.2902 60.8514 94.6183C70.2435 99.5225 81.5053 100.217 91.375 96.2779C101.27 92.3297 108.755 83.9661 119.252 81.3194C128.778 78.9187 139.088 81.911 146.158 88.643C152.291 94.4813 157.888 104.744 153.128 113.002C149.039 120.095 139.497 122.595 131.878 123.059C120.594 123.751 109.523 120.431 99.2502 116.06C94.0032 113.827 88.9185 111.115 83.5436 109.203C78.9177 107.559 73.8019 106.859 69.1573 108.792C61.4663 111.996 57.2431 120.525 56.4503 128.431C55.5763 137.14 60.1085 145.712 67.5935 150.18C72.0695 152.852 77.2416 153.77 82.4043 153.534C88.082 153.272 93.6755 151.572 99.3844 151.918C103.711 152.182 107.756 154.424 109.148 158.718C109.85 160.876 109.866 163.155 109.142 165.313C108.455 167.359 107.047 168.863 105.593 170.398C102.618 173.537 100.13 176.94 101.254 181.474C101.975 184.391 106.492 183.155 105.768 180.231C104.828 176.432 109.317 173.571 111.336 170.943C114.286 167.104 115.175 161.832 113.583 157.245C112.054 152.83 108.63 149.53 104.188 148.075C98.8631 146.332 93.0606 147.53 87.6825 148.324C82.526 149.084 77.0012 149.436 72.1195 147.278C68.3551 145.616 65.215 142.788 63.2267 139.189C59.4218 132.295 60.7921 123.103 65.7457 117.093C68.2147 114.098 71.5826 112.189 75.528 112.264C80.956 112.364 86.0781 115.247 90.8975 117.439C101.238 122.138 111.82 126.369 123.219 127.534C132.311 128.462 142.54 127.372 150.365 122.272C153.892 119.974 156.742 116.872 158.312 112.943C160.073 108.527 159.811 103.489 158.325 99.0367C155.244 89.8106 147.837 82.2037 138.901 78.4579C129.203 74.3913 118.69 75.3566 109.441 80.1362C104.694 82.5898 100.508 85.9558 95.9603 88.7364C91.503 91.4609 86.6368 93.4506 81.4055 94.0049C71.5639 95.048 61.7816 91.4018 54.8334 84.4176C48.0133 77.5642 44.5299 68.0922 44.7078 58.4831C44.8732 49.6307 48.3567 39.3833 56.1881 34.395C59.7714 32.1095 63.9759 31.4961 67.9993 32.9689C71.7917 34.3577 74.757 37.4091 77.3977 40.3423C80.3629 43.6367 83.1003 47.1396 86.5432 49.9732C90.4948 53.2239 94.9896 55.5001 100.065 56.3595C105.312 57.2469 110.921 57.1878 116.134 56.0761C120.516 55.142 124.702 52.8098 126.852 48.7495C131.422 40.1243 127.286 29.2635 120.875 22.7869C113.671 15.51 103.417 12.3869 93.3259 12.745C87.567 12.9505 81.9891 14.4047 76.2958 15.1053C71.4858 15.6969 66.1327 15.8183 61.8128 13.2899C57.9173 11.0107 55.5732 6.723 55.5014 2.25475C55.4515 -0.746913 50.7695 -0.756254 50.8163 2.25475Z" fill="black"/>
<path d="M51.1629 5.89152C51.2409 10.6026 53.1418 15.1986 56.5472 18.4898C60.0743 21.8994 64.8125 23.3846 69.6256 23.6929C74.9631 24.0354 80.2788 22.8895 85.5101 21.9928C90.8851 21.0711 96.388 20.5885 101.797 21.5537C110.496 23.1075 118.796 28.2296 122.589 36.422C124.368 40.2643 125.201 45.2246 123.488 49.2382C121.708 53.4075 117.392 55.0547 113.178 55.6339C108.077 56.3314 102.681 56.0511 97.7708 54.4631C93.3135 53.0214 89.6334 50.1817 86.4934 46.7783C80.8219 40.6349 75.5312 32.81 66.6354 31.3403C57.3837 29.8114 49.3775 36.232 45.0919 43.9074C40.2288 52.6198 39.2799 63.3716 41.6334 72.9775C43.8371 81.9825 49.1746 90.0036 56.6814 95.4682C64.6658 101.282 74.9974 103.623 84.7236 102.007C94.871 100.323 102.334 93.3602 110.987 88.4623C119.37 83.7169 129.343 82.6427 138.273 86.6781C146.404 90.3523 152.944 97.844 154.863 106.609C155.74 110.62 155.338 114.559 152.669 117.822C150.063 121.01 146.27 123.143 142.434 124.504C132.343 128.088 121.384 126.917 111.308 123.919C105.952 122.324 100.717 120.282 95.6014 118.04C90.5449 115.823 85.4571 113.22 80.0665 111.915C74.9163 110.67 69.7848 111.246 65.5835 114.63C62.0127 117.507 59.7153 121.764 58.1953 126.011C55.127 134.58 57.0497 144.392 63.8168 150.663C67.4813 154.057 72.1445 156.286 77.0919 156.981C82.7009 157.765 88.182 156.445 93.7193 155.732C97.9019 155.193 102.905 154.954 106.367 157.809C109.666 160.527 110.983 165.341 109.445 169.336C108.646 171.413 107.085 173.017 105.559 174.58C103.901 176.28 102.496 177.999 101.616 180.222C101.148 181.402 102.128 182.775 103.252 183.096C104.578 183.473 105.668 182.632 106.133 181.464C106.954 179.39 108.923 177.93 110.375 176.314C111.96 174.548 113.271 172.596 114.045 170.342C115.544 165.976 114.676 160.801 111.985 157.071C109.123 153.107 104.816 151.195 100.021 150.812C94.8461 150.401 89.7583 151.824 84.6486 152.36C79.4454 152.902 74.4263 152.313 69.9253 149.492C66.1609 147.135 63.2893 143.504 62.0844 139.22C60.9233 135.091 61.379 130.8 62.8741 126.821C64.3568 122.869 66.8851 118.551 70.8991 116.741C75.7154 114.568 81.3587 117 85.866 118.849C91.0942 120.992 96.1914 123.42 101.47 125.451C111.545 129.324 122.358 132.204 133.248 131.205C142.181 130.386 152.351 127.014 157.479 119.127C162.529 111.358 159.236 100.958 154.233 94.011C148.689 86.3169 140.362 81.0982 130.916 79.8091C126.097 79.1521 121.125 79.4915 116.471 80.9394C111.739 82.4122 107.475 84.9811 103.377 87.7087C99.294 90.4271 95.2799 93.3229 90.7852 95.3437C86.2218 97.3957 81.1559 98.1212 76.1836 97.7662C66.8664 97.1061 58.0642 92.2829 52.4083 84.8877C46.5807 77.2745 44.143 67.3323 45.4102 57.8664C46.5214 49.5652 51.0162 39.5544 59.5312 36.5091C68.2772 33.3829 74.9631 40.5975 80.1227 46.5759C83.0817 50.0042 86.0657 53.339 89.9019 55.8207C94.2125 58.6106 99.1723 59.9714 104.254 60.4509C113.424 61.3134 125.304 59.6382 128.376 49.4468C131.054 40.557 126.334 30.7362 119.645 24.9291C112.157 18.4275 102.29 15.84 92.4895 16.4347C86.7524 16.7835 81.1871 18.2999 75.4813 18.8666C70.9085 19.3212 65.9362 19.2371 61.9034 16.7617C58.1578 14.4637 55.9323 10.2259 55.8636 5.88529C55.7949 2.88985 51.1129 2.88051 51.1629 5.89152Z" fill="black"/>
<path d="M100.82 180.402C100.442 185.313 103.517 189.479 107.194 192.39C110.902 195.327 115.141 198.462 119.773 199.717C122.21 200.377 124.355 199.879 126.268 198.254C128.035 196.753 129.695 194.972 131.178 193.194C134.056 189.741 136.359 185.493 135.963 180.854C135.738 178.232 134.777 175.959 133.026 173.988C131.134 171.861 129.286 170.102 127.957 167.53C126.577 164.859 122.535 167.219 123.915 169.887C125.091 172.167 126.636 174.172 128.444 175.984C129.945 177.488 131.125 178.892 131.303 181.091C131.681 185.817 128.285 189.666 125.185 192.795C124.448 193.539 123.718 194.439 122.844 195.037C121.88 195.7 120.74 195.171 119.745 194.791C117.491 193.935 115.443 192.552 113.471 191.195C109.756 188.638 105.115 185.478 105.505 180.393C105.73 177.404 101.048 177.419 100.82 180.402Z" fill="black"/>
</svg>

<svg xmlns="http://www.w3.org/2000/svg" width="200" height="200" fill="none"><path fill="#000" d="M50.816 2.255c.078 4.789 2.051 9.5 5.581 12.788 3.765 3.51 8.815 4.904 13.868 5.06 5.616.171 11.15-1.162 16.659-2.037 5.534-.878 11.23-1.02 16.709.309 8.586 2.089 16.811 8.067 19.508 16.755 1.295 4.172 1.595 9.58-1.554 13.053-3.019 3.328-8.06 3.814-12.28 4.026-5.347.27-10.884-.284-15.622-2.936-3.999-2.24-7.136-5.537-10.11-8.959-5.556-6.39-12.008-13.579-21.353-12.794-9.318.781-16.013 8.597-19.343 16.743-3.846 9.403-3.796 20.497-.106 29.945 3.383 8.665 9.788 16.082 18.078 20.41 9.392 4.904 20.654 5.599 30.524 1.66 9.895-3.948 17.38-12.312 27.877-14.959 9.526-2.4 19.836.592 26.906 7.324 6.133 5.838 11.73 16.101 6.97 24.359-4.089 7.093-13.631 9.593-21.25 10.057-11.284.692-22.355-2.628-32.628-6.999-5.247-2.233-10.332-4.945-15.706-6.857-4.626-1.644-9.742-2.344-14.387-.411-7.69 3.204-11.914 11.733-12.707 19.639-.874 8.709 3.658 17.281 11.144 21.749 4.476 2.672 9.648 3.59 14.81 3.354 5.678-.262 11.272-1.962 16.98-1.616 4.327.264 8.372 2.506 9.764 6.8.702 2.158.718 4.437-.006 6.595-.687 2.046-2.095 3.55-3.549 5.085-2.975 3.139-5.463 6.542-4.339 11.076.721 2.917 5.238 1.681 4.514-1.243-.94-3.799 3.549-6.66 5.568-9.288 2.95-3.839 3.839-9.111 2.247-13.698-1.529-4.415-4.953-7.715-9.395-9.17-5.325-1.743-11.127-.545-16.505.249-5.157.76-10.682 1.112-15.564-1.046-3.764-1.662-6.904-4.49-8.892-8.089-3.805-6.894-2.435-16.086 2.519-22.096 2.469-2.995 5.837-4.904 9.782-4.829 5.428.1 10.55 2.983 15.37 5.175 10.34 4.699 20.922 8.93 32.321 10.095 9.092.928 19.321-.162 27.146-5.262 3.527-2.298 6.377-5.4 7.947-9.329 1.761-4.416 1.499-9.454.013-13.906-3.081-9.226-10.488-16.833-19.424-20.58-9.698-4.066-20.211-3.1-29.46 1.68-4.747 2.453-8.933 5.819-13.48 8.6-4.458 2.724-9.324 4.714-14.555 5.268-9.842 1.043-19.624-2.603-26.573-9.587-6.82-6.854-10.303-16.326-10.125-25.935.165-8.852 3.649-19.1 11.48-24.088 3.583-2.286 7.788-2.899 11.811-1.426 3.793 1.389 6.758 4.44 9.399 7.373 2.965 3.295 5.702 6.798 9.145 9.631 3.952 3.25 8.447 5.527 13.522 6.386 5.247.888 10.856.829 16.069-.283 4.382-.934 8.568-3.266 10.718-7.327 4.57-8.625.434-19.485-5.977-25.962-7.204-7.277-17.458-10.4-27.55-10.042-5.758.206-11.336 1.66-17.03 2.36-4.81.592-10.162.713-14.482-1.815-3.896-2.28-6.24-6.567-6.312-11.035-.05-3.002-4.731-3.011-4.685 0"/><path fill="#000" d="M51.163 5.892c.078 4.71 1.979 9.307 5.384 12.598 3.527 3.41 8.266 4.895 13.079 5.203 5.337.342 10.653-.803 15.884-1.7 5.375-.922 10.878-1.404 16.287-.44 8.699 1.555 16.999 6.677 20.792 14.869 1.779 3.842 2.612 8.803.899 12.816-1.78 4.17-6.096 5.817-10.31 6.396-5.101.697-10.497.417-15.407-1.17-4.457-1.443-8.138-4.282-11.278-7.686-5.671-6.143-10.962-13.968-19.858-15.438-9.251-1.529-17.258 4.892-21.543 12.567-4.863 8.713-5.812 19.465-3.459 29.07 2.204 9.005 7.542 17.027 15.048 22.491 7.985 5.814 18.316 8.155 28.043 6.539 10.147-1.684 17.61-8.647 26.263-13.545 8.383-4.745 18.356-5.82 27.286-1.784 8.131 3.674 14.671 11.166 16.59 19.931.877 4.011.475 7.95-2.194 11.213-2.606 3.188-6.399 5.321-10.235 6.682-10.091 3.584-21.05 2.413-31.126-.585-5.356-1.595-10.591-3.637-15.707-5.879-5.056-2.217-10.144-4.82-15.534-6.125-5.15-1.245-10.282-.669-14.483 2.715-3.571 2.877-5.869 7.134-7.389 11.381-3.068 8.569-1.145 18.381 5.622 24.652a24.67 24.67 0 0 0 13.275 6.318c5.609.784 11.09-.536 16.627-1.249 4.183-.539 9.186-.778 12.648 2.077 3.299 2.718 4.616 7.532 3.078 11.527-.799 2.077-2.36 3.681-3.886 5.244-1.658 1.7-3.063 3.419-3.943 5.642-.468 1.18.512 2.553 1.636 2.874 1.326.377 2.416-.464 2.881-1.632.821-2.074 2.79-3.534 4.242-5.15 1.585-1.766 2.896-3.718 3.67-5.972 1.499-4.366.631-9.541-2.06-13.271-2.862-3.964-7.169-5.876-11.964-6.259-5.175-.411-10.263 1.012-15.372 1.548-5.204.542-10.223-.047-14.724-2.868-3.764-2.357-6.636-5.988-7.84-10.272-1.162-4.129-.706-8.42.79-12.399 1.482-3.952 4.01-8.27 8.024-10.08 4.816-2.173 10.46.259 14.967 2.108 5.228 2.143 10.325 4.571 15.604 6.602 10.075 3.873 20.888 6.753 31.778 5.754 8.933-.819 19.103-4.191 24.231-12.078 5.05-7.769 1.757-18.169-3.246-25.116-5.544-7.694-13.871-12.913-23.317-14.202-4.819-.657-9.791-.317-14.445 1.13-4.732 1.473-8.996 4.042-13.094 6.77-4.083 2.718-8.097 5.614-12.592 7.635-4.563 2.052-9.63 2.777-14.601 2.422-9.318-.66-18.12-5.483-23.776-12.878-5.827-7.614-8.265-17.556-6.998-27.022 1.111-8.3 5.606-18.312 14.121-21.357 8.746-3.126 15.432 4.088 20.592 10.067 2.959 3.428 5.943 6.763 9.779 9.245 4.31 2.79 9.27 4.15 14.352 4.63 9.17.862 21.05-.813 24.122-11.004 2.678-8.89-2.042-18.71-8.731-24.518-7.488-6.501-17.355-9.089-27.155-8.494-5.738.349-11.303 1.865-17.009 2.432-4.572.454-9.545.37-13.578-2.105-3.745-2.298-5.97-6.536-6.04-10.877-.068-2.995-4.75-3.004-4.7.007"/><path fill="#000" d="M100.82 180.402c-.378 4.911 2.697 9.077 6.374 11.988 3.708 2.937 7.947 6.072 12.579 7.327 2.437.66 4.582.162 6.495-1.463 1.767-1.501 3.427-3.282 4.91-5.06 2.878-3.453 5.181-7.701 4.785-12.34-.225-2.622-1.186-4.895-2.937-6.866-1.892-2.127-3.74-3.886-5.069-6.458-1.38-2.671-5.422-.311-4.042 2.357 1.176 2.28 2.721 4.285 4.529 6.097 1.501 1.504 2.681 2.908 2.859 5.107.378 4.726-3.018 8.575-6.118 11.704-.737.744-1.467 1.644-2.341 2.242-.964.663-2.104.134-3.099-.246-2.254-.856-4.302-2.239-6.274-3.596-3.715-2.557-8.356-5.717-7.966-10.802.225-2.989-4.457-2.974-4.685.009"/></svg>
